X:167
T:Roxanne's Reel
R:reel
C:Bruce Osborne  --  July 1997
Z:abc by bosborne@kos.net
M:4/4
L:1/8
K:G
GA|B2 Bc BAGA|BcBA G2 FG|A2 AB AFDF|GDB,D G2 GA|\
B2 Bc BAGA|BcBA G2 FG|AFDF GDB,D|G2 GF G2:|
|:GA|BcBA G2 GA|BcBA G2 FG|AFDF GDB,D|G2 GF G2 GA|\
BcBA G2 GA|BcBA G2 FG|AFDF GDB,D|G2 GF G2:|
